X:38
T:Jigs simple chords 48
M:3/4
L:1/8
K:D
B/c/[dD,F,A,] FF AG | F[DD,F,A,] FA AF | A[BE,G,B,] EE GE | E[BG,B,D] dB AF | A[dD,F,A,] FF AG |
F[DD,F,A,] FA AF | A[BG,B,D] cd ef | g[fD,F,A,] dd d2 | B/c/[dD,F,A,] FF AG |
F[DD,F,A,] FA AF | A[BE,G,B,] EE GE | E[BG,B,D] dB AF | A[dD,F,A,] FF AG |
F[DD,F,A,] FA AF | A[BG,B,D] cd ef | g[fD,F,A,] dd d2 | B/c/[dD,F,A,] fd ce |
c[BB,DF] dB AG | F[BE,G,B,] EE GE | E[BG,B,D] dB AF | A[dD,F,A,] fd ce |
c[BB,DF] dB AF | A[BG,B,D] cd ef | g[fD,F,A,] dd d2 | B/c/[dD,F,A,] fd ce |
c[BB,DF] dB AG | F[BE,G,B,] EE GE | E[BG,B,D] dB AF | A[dD,F,A,] fd ce |
c[BB,DF] dB AF | A[BG,B,D] cd ef | g[fD,F,A,] dd d2 |


